X:1
T:Grand Menuetto EHo.124
T:Grand Menuetto EHo.124
T:Mozart
C:Mozart
L:1/8
Q:1/4=100
M:3/4
K:E
V:1 treble 
V:1
 .B2 .B.B.B.B |{BcB^A} Be B3 G | (BA).A.A.A.A |{B} (AG/A/) G2 z2 |"^f" ^A2 AAAA | B>c d2 z2 | %6
"^p" e>c B2 ^A2 | (^A4 B2) ::"^mf" .B2 .B.B.B.B |{BcB^A} Be B3 G | (BA).A.A.A.A | %11
 (B/A/G/A/) G2 z2 |"^f" c2 cccc | e>f g2 z2 | B>A G2 F2 | (F4 E2) :: (B/c/B/A/ B/c/B/A/ B/c/B/A/) | %17
 (B/d/e/B/) G2 z G | (A/G/F/E/ D/E/F/G/ A/F/B/A/) | (F2 G2) z2 | (F/G/F/^E/ F/c/^B/c/ =B/^A/G/F/) | %21
 B/c/B/^A/ B/c/d/e/ f>f |"^tr" f/g/e/c/ B2 ^A>c | (c4 B2) :: (B.f){ef} ed{cd} c.B | %25
 (Bf) (3(ed).c (3(dc).B | (B/e/d/e/) B3 G | (A/G/F/E/ D/E/F/G/ A/F/B/A/) | (F2 G2) z2 | %29
 (A/c/^B/c/ d/c/B/c/)"^f" dd | (ef/e/4d/4) e>f g2 |"^p" (d/c/B/A/) .G2 (G/F/E/F/) | (F4 E2) :: b | %34
"^var 2" (e'/d'/c'/b/ a/g/f/e/ d/e/{g}f/e/) | (B4 B)G | (A/B/A/G/ A/F/f/e/ d/c/B/A/) | (F2 G2) z2 | %38
 (FG/^A/ B/c/d/^e/ f/g/a/f/) | (b/f/d'/c'/ b/^a/g/f/ e/d/c/B/) | (G/g/e/c/ B/f/d/B/ A/e/c/A/) | %41
 (c2 B) z z :: .B | (^e/f/g/4f/ e/f/g/f/ =e/d/c/B/) | (Be) B3 G/ | (A/B/A/G/ A/F/f/e/ d/c/B/A/) | %46
 (F2 G2) z2 | c/E/D/E/ F/G/A/B/ c/B/c/d/ | e/B/c/d/ e/f/g/a/ b/c'/d'/e'/ | %49
 (f/c'/a/f/ f/b/g/e/ d/a/f/d/) | (f2 e) z z ::"^f" [B,E]2 e/d/e/B/ g/f/g/e/ | %52
 b/^a/b/g/"^sf" e'/d'/c'/b/ =a/g/f/e/ | d/B/e/B/ f/B/g/B/ a/B/b/B/ | %54
 (a/g/f/g/ a/g/f/g/) (^f/e/d/e/) | z/ c/^B/c/ f/c/^a/c/ c'/c/a/c/ | z/ d/c/d/ f/d/b/d/ d'/d/b/d/ | %57
 f/g/=a/g/ ^f/e/d/c/ B/^A/f/A/ | (c4 B2) ::"^f" z/ (B/^A/B/ c/B/A/B/ d/B/f/B/) | %60
 (e/B/^A/B/ c/B/A/B/ =A/G/F/E/) | .D.E.F.G.A.B | (A/G/^F/G/ A/G/F/G/ ^F/E/D/E/) |"^tr" c6 | %64
 a3 d (eB) | (d/c/B/A/) G2 .F2 | (F4 E2)!D.C.! :| %67

